X: 649
T: Nzi buhuijia
L: 1/8
M: 2/4
K: G
d> c d e [I:setbarnb 1]| 
d c A3/ B/ | 
d B/ c/ d e | 
G3A | 
d d/ c/ A A/ d/ | 
A G/ E< D E/ | 
A A/ G/ E E/ G/ | 
D4 |]

@@@ Tune index: 9523
